; generated by PrusaSlicer 2.7.1+win64 on 2024-02-02 at 20:21:33 UTC


;
;

;
;

;
;

;
;

;
;
; 

; external perimeters extrusion width = 0.45mm
; perimeters extrusion width = 0.45mm
; infill extrusion width = 0.45mm
; solid infill extrusion width = 0.45mm
; top infill extrusion width = 0.42mm
; first layer extrusion width = 0.50mm

; external perimeters extrusion width = 0.45mm
; perimeters extrusion width = 0.45mm
; infill extrusion width = 0.45mm
; solid infill extrusion width = 0.45mm
; top infill extrusion width = 0.42mm
; first layer extrusion width = 0.50mm

M73 P0 R27
M201 X4000 Y4000 Z200 E2500 ; sets maximum accelerations, mm/sec^2
M203 X300 Y300 Z40 E100 ; sets maximum feedrates, mm / sec
M204 P4000 R1200 T4000 ; sets acceleration (P, T) and retract acceleration (R), mm/sec^2
M205 X8.00 Y8.00 Z2.00 E10.00 ; sets the jerk limits, mm/sec
M205 S0 T0 ; sets the minimum extruding and travel feed rate, mm/sec

M486 S0
M486 AMK2.2.3 Head Top.STL
M486 S-1
M486 S1
M486 AMK2.2.2 Head Bottom.STL
M486 S-1

;TYPE:Custom
M17 ; enable steppers
M862.1 P0.4 ; nozzle diameter check
M862.3 P "MK4" ; printer model check
M862.5 P2 ; g-code level check
M862.6 P"Input shaper" ; FW feature check
M115 U5.1.0+13455

M555 X96.1509 Y29.022 W54.3998 H97.9653

G90 ; use absolute coordinates
M83 ; extruder relative mode

M140 S60 ; set bed temp
M104 T0 S170 ; set extruder temp for bed leveling
M109 T0 R170 ; wait for temp

M84 E ; turn off E motor

G28 ; home all without mesh bed level

G1 X42 Y-4 Z5 F4800

M302 S160 ; lower cold extrusion limit to 160C


G1 E-2 F2400 ; retraction


M84 E ; turn off E motor

G29 P9 X10 Y-4 W32 H4

M106 S100

G0 Z40 F10000

M190 S60 ; wait for bed temp

M107

;
; MBL
;
M84 E ; turn off E motor
G29 P1 ; invalidate mbl & probe print area
G29 P1 X0 Y0 W50 H20 C ; probe near purge place
G29 P3.2 ; interpolate mbl probes
G29 P3.13 ; extrapolate mbl outside probe area
G29 A ; activate mbl

; prepare for purge
M104 S230
G0 X0 Y-4 Z15 F4800 ; move away and ready for the purge
M109 S230

G92 E0
M569 S0 E ; set spreadcycle mode for extruder

;
; Extrude purge line
;
G92 E0 ; reset extruder position
G1 E2 F2400 ; deretraction after the initial one before nozzle cleaning
G0 E7 X15 Z0.2 F500 ; purge
G0 X25 E4 F500 ; purge
G0 X35 E4 F650 ; purge
G0 X45 E4 F800 ; purge
G0 X48 Z0.05 F8000 ; wipe, move close to the bed
G0 X51 Z0.2 F8000 ; wipe, move quickly away from the bed

G92 E0
M221 S100 ; set flow to 100%
G21 ; set units to millimeters
G90 ; use absolute coordinates
M83 ; use relative distances for extrusion
M900 K0.05 ; Filament gcode


M572 S0.038 ; Filament gcode


M142 S36 ; set heatbreak target temp
M107
;LAYER_CHANGE
;Z:0.2
;HEIGHT:0.2
;BEFORE_LAYER_CHANGE
G92 E0.0
;0.2
M201 X4000 Y4000
M74 W0

G1 E-.7 F2100
G1 Z.2 F720
;AFTER_LAYER_CHANGE
;0.2
M486 S1
G1 X122.225 Y53.254 F18000
G1 Z.2 F720
G1 E.7 F2100
M204 P500
;TYPE:Perimeter
;WIDTH:0.499999
G1 F2400
G1 X122.057 Y53.252 E.00639
G1 X121.812 Y53.358 E.01015
G1 X121.608 Y53.575 E.01132
G1 X121.516 Y53.866 E.0116
G1 X120.469 Y66.445 E.47973
G1 X120.477 Y66.668 E.00848
G1 X120.581 Y66.919 E.01033
G1 X120.807 Y67.129 E.01173
G1 X121.12 Y67.22 E.01239
G1 X121.428 Y67.162 E.01191
G1 X126.71 Y64.815 E.21967
G1 X130.955 Y67.361 E.18813
G1 X131.082 Y67.42 E.00532
G1 X131.387 Y67.453 E.01166
G1 X131.689 Y67.342 E.01223
G1 X131.898 Y67.121 E.01156
G1 X134.821 Y62.167 E.21861
G1 X139.202 Y64.42 E.18723
G1 X139.463 Y64.494 E.01031
G1 X139.737 Y64.459 E.0105
G1 X139.994 Y64.301 E.01147
G1 X140.129 Y64.116 E.0087
G1 X142.302 Y59.76 E.18501
G1 X143.076 Y59.497 E.03107
G1 X145.446 Y66.173 E.26924
G1 X143.245 Y69.224 E.14298
G1 X123.317 Y76.046 E.80054
G1 X113.987 Y72.649 E.37737
G1 X115.777 Y67.725 E.19912
G1 X115.862 Y67.18 E.02096
G2 X115.699 Y66.436 I-2.822 J.228 E.02904
G1 X115.424 Y65.982 E.02017
G1 X115.03 Y65.638 E.01988
G1 X114.671 Y65.448 E.01544
G1 X110.212 Y63.824 E.18036
G1 X109.699 Y63.685 E.0202
G1 X109.278 Y63.654 E.01604
G1 X108.683 Y63.79 E.0232
G1 X108.225 Y64.06 E.02021
G1 X107.856 Y64.475 E.02111
G1 X107.665 Y64.834 E.01546
G1 X105.893 Y69.701 E.19686
G1 X97.207 Y66.538 E.35133
G1 X102.514 Y45.115 E.83882
G1 X141.423 Y34.001 E1.53793
G1 X145.331 Y36.317 E.17265
G1 X145.539 Y38.783 E.09406
G1 X146.492 Y50.095 E.43145
G1 X145.615 Y50.481 E.03642
G1 X140.596 Y47.516 E.22155
G1 X140.36 Y47.43 E.00955
G1 X140.089 Y47.439 E.01031
G1 X139.82 Y47.57 E.01137
G1 X139.648 Y47.772 E.01008
G1 X136.688 Y53.074 E.23079
G1 X132.094 Y49.848 E.21335
G1 X131.871 Y49.746 E.00932
G1 X131.575 Y49.735 E.01126
G1 X131.298 Y49.854 E.01146
G1 X131.09 Y50.097 E.01216
G1 X128.215 Y55.717 E.23992
G1 X122.465 Y53.292 E.23718
G1 X122.354 Y53.255 E.00445
G1 X122.285 Y53.255 E.00262
M204 P4000
M204 T4000
G1 X122.227 Y53.696 F18000
M204 P500
;TYPE:External perimeter
G1 F2400
G1 X122.054 Y53.746 E.00684
G1 X121.971 Y53.904 E.00678
G1 X120.925 Y66.483 E.47973
G1 X120.937 Y66.62 E.00523
G1 X121.066 Y66.748 E.00691
G1 X121.242 Y66.744 E.00669
G1 X126.741 Y64.301 E.22869
G1 X131.19 Y66.969 E.19716
G2 X131.381 Y66.989 I.131 J-.326 E.00739
G1 X131.504 Y66.889 E.00602
G1 X134.647 Y61.564 E.23501
G1 X139.411 Y64.013 E.20358
M73 P1 R27
G1 X139.589 Y64.026 E.00678
G1 X139.72 Y63.912 E.0066
G1 X141.977 Y59.388 E.19215
G1 X143.356 Y58.92 E.05535
G1 X145.957 Y66.246 E.29546
G1 X143.531 Y69.609 E.1576
G1 X123.312 Y76.531 E.81223
G1 X113.401 Y72.922 E.40088
G1 X115.329 Y67.626 E.2142
G1 X115.402 Y67.219 E.01572
G1 X115.336 Y66.772 E.01717
G1 X115.099 Y66.311 E.0197
G1 X114.736 Y65.989 E.01844
G1 X114.514 Y65.878 E.00943
G1 X109.843 Y64.176 E.18895
G1 X109.435 Y64.104 E.01575
G1 X108.956 Y64.175 E.0184
G1 X108.528 Y64.406 E.01848
G1 X108.206 Y64.769 E.01844
G1 X108.094 Y64.991 E.00945
G1 X106.166 Y70.287 E.2142
G1 X96.664 Y66.827 E.38433
G1 X102.134 Y44.748 E.86451
G1 X141.487 Y33.508 E1.55547
G1 X145.767 Y36.044 E.18908
G1 X145.994 Y38.744 E.10298
G1 X146.975 Y50.383 E.44392
G1 X145.584 Y50.993 E.05773
G1 X140.363 Y47.909 E.23046
G1 X140.184 Y47.886 E.00686
G1 X140.047 Y47.995 E.00665
G1 X136.84 Y53.739 E.25003
G1 X131.832 Y50.223 E.23256
G2 X131.634 Y50.191 I-.16 J.363 E.00771
G1 X131.497 Y50.305 E.00677
G1 X128.429 Y56.304 E.25609
G1 X122.288 Y53.713 E.25332
G1 X122.285 Y53.712 E.00012
M204 P4000
G1 X121.963 Y53.95 F18000
G1 E-.7 F2100
G1 Z.4 F720
G1 X114.427 Y51.631 F18000
G1 Z.2 F720
G1 E.7 F2100
M204 P500
;TYPE:Perimeter
G1 F2400
G1 X114.392 Y52.15 E.01977
G1 X114.254 Y52.719 E.02225
G1 X114.022 Y53.255 E.0222
G1 X113.703 Y53.745 E.02222
G1 X113.305 Y54.175 E.02227
G1 X112.841 Y54.53 E.0222
G1 X112.323 Y54.802 E.02224
G1 X111.767 Y54.983 E.02222
G1 X111.188 Y55.067 E.02224
G1 X110.603 Y55.052 E.02224
G1 X110.029 Y54.938 E.02224
G1 X109.518 Y54.744 E.02077
G1 X108.987 Y54.436 E.02333
G1 X108.534 Y54.052 E.02257
G1 X108.159 Y53.604 E.0222
G1 X107.866 Y53.098 E.02222
G1 X107.661 Y52.55 E.02224
G3 X107.543 Y51.834 I7.57 J-1.625 E.02759
G3 X107.642 Y50.763 I4.259 J-.143 E.04099
G3 X108.094 Y49.742 I4.108 J1.207 E.04256
G1 X108.454 Y49.281 E.02223
G1 X108.886 Y48.887 E.02222
G1 X109.379 Y48.572 E.02224
G1 X109.918 Y48.345 E.02223
G1 X110.488 Y48.212 E.02225
G1 X111.034 Y48.179 E.02079
G1 X111.644 Y48.241 E.0233
G1 X112.215 Y48.404 E.02257
G1 X112.742 Y48.658 E.02223
G1 X113.218 Y48.998 E.02223
G1 X113.63 Y49.413 E.02223
G1 X113.965 Y49.892 E.02222
G1 X114.215 Y50.421 E.02224
G1 X114.372 Y50.985 E.02225
G1 X114.431 Y51.567 E.02223
G1 X114.431 Y51.571 E.00015
M204 P4000
G1 X113.969 Y51.631 F18000
M204 P500
;TYPE:External perimeter
G1 F2400
G3 X113.811 Y52.603 I-3.112 J-.005 E.03758
G3 X112.569 Y54.163 I-2.927 J-1.057 E.07715
G3 X110.623 Y54.595 I-1.613 J-2.662 E.07712
G3 X108.836 Y53.709 I.429 J-3.108 E.07714
G3 X108.092 Y52.397 I2.355 J-2.202 E.05786
G1 X108 Y51.835 E.02164
G1 X108.004 Y51.347 E.01855
G3 X108.836 Y49.54 I3.092 J.329 E.07696
G3 X110.623 Y48.654 I2.204 J2.198 E.07717
G3 X112.536 Y49.066 I.329 J3.119 E.07564
G3 X113.799 Y50.609 I-1.651 J2.639 E.07714
G3 X113.969 Y51.571 I-2.942 J1.017 E.03728
M204 P4000
G1 X113.94 Y51.172 F18000
G1 E-.7 F2100
G1 Z.4 F720
G1 X145.243 Y37.449 F18000
G1 Z.2 F720
G1 E.7 F2100
M204 P500
;TYPE:Solid infill
;WIDTH:0.501399
G1 F2400
G1 X143.443 Y35.65 E.09702
G1 X141.852 Y34.707 E.07051
G1 X145.077 Y37.932 E.17387
G1 X145.137 Y38.64 E.02709
G1 X141.018 Y34.521 E.22207
G1 X140.514 Y34.665 E.01998
G1 X145.197 Y39.348 E.25248
G1 X145.256 Y40.056 E.02708
G1 X140.009 Y34.809 E.28288
G1 X139.505 Y34.953 E.01998
G1 X145.316 Y40.764 E.31329
G1 X145.376 Y41.472 E.02709
G1 X139.001 Y35.097 E.3437
G1 X138.496 Y35.242 E.02003
G1 X145.435 Y42.181 E.37411
G1 X145.495 Y42.889 E.02709
G1 X137.992 Y35.386 E.40451
G1 X137.488 Y35.53 E.01998
G1 X145.555 Y43.597 E.43492
G1 X145.614 Y44.305 E.02708
G1 X136.983 Y35.674 E.46533
G1 X136.479 Y35.818 E.01998
G1 X145.674 Y45.013 E.49574
G1 X145.734 Y45.721 E.02709
G1 X135.975 Y35.962 E.52614
G1 X135.47 Y36.106 E.02002
G1 X145.793 Y46.429 E.55655
G1 X145.853 Y47.137 E.02709
G1 X134.966 Y36.25 E.58696
G1 X134.462 Y36.394 E.01998
G1 X145.913 Y47.845 E.61736
G1 X145.972 Y48.553 E.02708
G1 X133.957 Y36.538 E.64777
G1 X133.453 Y36.682 E.01998
G1 X146.032 Y49.261 E.67818
G1 X146.082 Y49.851 E.02257
G1 X146.007 Y49.884 E.00312
G1 X132.949 Y36.826 E.704
G1 X132.444 Y36.97 E.02002
G1 X145.344 Y49.869 E.69546
G1 X143.759 Y48.933 E.07017
M73 P1 R26
G1 X131.94 Y37.114 E.6372
G1 X131.436 Y37.258 E.01998
G1 X142.175 Y47.997 E.57898
G1 X140.786 Y47.177 E.06149
G1 X140.636 Y47.107 E.00631
G1 X130.931 Y37.402 E.52323
G1 X130.427 Y37.546 E.01998
M73 P2 R26
G1 X139.957 Y47.077 E.51382
G2 X139.537 Y47.305 I.243 J.948 E.0184
G1 X129.923 Y37.69 E.51835
G1 X129.418 Y37.834 E.02002
G1 X139.261 Y47.677 E.53067
G1 X139.028 Y48.093 E.01818
G1 X128.914 Y37.978 E.54531
G1 X128.41 Y38.123 E.01999
G1 X138.796 Y48.509 E.55995
G1 X138.563 Y48.925 E.01818
G1 X127.905 Y38.267 E.57461
G1 X127.401 Y38.411 E.01998
G1 X138.331 Y49.34 E.58925
G1 X138.098 Y49.756 E.01818
G1 X126.897 Y38.555 E.60389
G1 X126.392 Y38.699 E.02002
G1 X137.866 Y50.172 E.61858
G1 X137.633 Y50.588 E.01818
G1 X125.888 Y38.843 E.63322
G1 X125.384 Y38.987 E.01998
G1 X137.4 Y51.004 E.64785
G1 X137.168 Y51.419 E.01813
G1 X124.879 Y39.131 E.66252
G1 X124.375 Y39.275 E.01998
G1 X136.935 Y51.835 E.67715
G1 X136.703 Y52.251 E.01816
G1 X123.871 Y39.419 E.69182
G1 X123.366 Y39.563 E.02002
G1 X135.728 Y51.925 E.66648
G1 X133.552 Y50.397 E.10136
G1 X122.862 Y39.707 E.57634
G1 X122.358 Y39.851 E.01998
G1 X131.859 Y49.352 E.51223
G2 X131.284 Y49.426 I-.173 J.941 E.02245
G1 X121.853 Y39.995 E.50846
G1 X121.349 Y40.139 E.01998
G1 X130.901 Y49.692 E.51501
G2 X130.656 Y50.095 I1.384 J1.115 E.01803
G1 X120.845 Y40.283 E.52897
G1 X120.34 Y40.427 E.02002
G1 X130.437 Y50.524 E.54437
G1 X130.217 Y50.953 E.01838
G1 X119.836 Y40.571 E.5597
G1 X119.331 Y40.715 E.02002
G1 X129.998 Y51.382 E.5751
G1 X129.778 Y51.811 E.01838
G1 X118.827 Y40.859 E.59043
G1 X118.323 Y41.003 E.01998
G1 X129.559 Y52.239 E.60577
G1 X129.339 Y52.668 E.01838
G1 X117.818 Y41.148 E.62111
G1 X117.314 Y41.292 E.01998
G1 X129.12 Y53.097 E.63648
G1 X128.9 Y53.526 E.01838
G1 X116.81 Y41.436 E.65182
G1 X116.305 Y41.58 E.02002
G1 X128.681 Y53.955 E.66721
G1 X128.461 Y54.384 E.01838
G1 X115.801 Y41.724 E.68255
G1 X115.297 Y41.868 E.01998
G1 X128.242 Y54.813 E.69791
G1 X128.034 Y55.219 E.01739
G1 X127.975 Y55.195 E.00243
G1 X114.792 Y42.012 E.71074
G1 X114.288 Y42.156 E.01998
G1 X126.855 Y54.722 E.67751
G1 X125.734 Y54.25 E.04637
G1 X113.784 Y42.3 E.64427
G1 X113.279 Y42.444 E.02002
G1 X124.613 Y53.777 E.61103
G1 X123.492 Y53.305 E.04637
M73 P3 R26
G1 X112.775 Y42.588 E.57779
G1 X112.271 Y42.732 E.01998
G1 X122.415 Y52.876 E.5469
G2 X121.812 Y52.921 I-.224 J1.057 E.02336
G1 X111.766 Y42.876 E.54159
G1 X111.262 Y43.02 E.01998
G1 X121.426 Y53.184 E.54798
G2 X121.18 Y53.587 I.743 J.729 E.01816
G1 X110.758 Y43.164 E.56191
G1 X110.253 Y43.308 E.02002
G1 X121.102 Y54.157 E.58491
G1 X121.052 Y54.756 E.02291
G1 X109.749 Y43.452 E.60941
G1 X109.245 Y43.596 E.01998
G1 X121.003 Y55.354 E.63392
G1 X120.953 Y55.953 E.02291
G1 X108.74 Y43.74 E.65845
G1 X108.236 Y43.884 E.01998
G1 X112.42 Y48.068 E.22557
G3 X114.021 Y49.282 I-1.474 J3.609 E.07747
G3 X114.533 Y50.181 I-3.31 J2.477 E.03954
G1 X120.904 Y56.552 E.34348
G1 X120.854 Y57.151 E.02291
G1 X114.776 Y51.073 E.32769
G3 X114.819 Y51.709 I-5.064 J.66 E.02432
G1 X114.815 Y51.76 E.00195
G1 X120.805 Y57.75 E.32294
G1 X120.755 Y58.349 E.02291
G1 X114.75 Y52.343 E.32378
G1 X114.616 Y52.858 E.02029
G1 X120.706 Y58.948 E.32833
G1 X120.656 Y59.547 E.02291
G1 X114.422 Y53.313 E.3361
G3 X114.186 Y53.724 I-1.921 J-.83 E.01811
G1 X120.607 Y60.146 E.34621
G1 X120.557 Y60.744 E.02288
G1 X113.914 Y54.101 E.35815
G1 X113.596 Y54.432 E.0175
G1 X120.508 Y61.343 E.37262
G1 X120.458 Y61.942 E.02291
G1 X113.237 Y54.721 E.38931
G3 X112.843 Y54.975 I-1.356 J-1.665 E.01791
G1 X120.409 Y62.541 E.40791
G1 X120.359 Y63.14 E.02291
G1 X112.406 Y55.187 E.42877
G1 X111.915 Y55.344 E.01965
G1 X120.31 Y63.739 E.4526
G1 X120.26 Y64.338 E.02291
G1 X111.359 Y55.436 E.47991
G3 X110.714 Y55.44 I-.339 J-2.814 E.02464
G1 X120.211 Y64.937 E.51202
G1 X120.161 Y65.535 E.02288
G1 X109.596 Y54.97 E.5696
M204 P4000
G1 E-.7 F2100
G1 X109.596 Y54.97 Z.4 F18014.394
G1 X111.788 Y48.085 F18000
G1 Z.2 F720
G1 E.7 F2100
M204 P500
G1 F2400
G1 X107.732 Y44.028 E.2187
G1 X107.227 Y44.173 E.02003
G1 X110.853 Y47.798 E.19546
G2 X110.269 Y47.862 I-.027 J2.434 E.02245
G1 X106.723 Y44.317 E.19115
G1 X106.219 Y44.461 E.01998
G1 X109.755 Y47.997 E.19064
G1 X109.291 Y48.181 E.01903
G1 X105.714 Y44.605 E.19282
G1 X105.21 Y44.749 E.01998
G1 X108.884 Y48.422 E.19805
G2 X108.512 Y48.699 I.968 J1.687 E.01772
G1 X104.706 Y44.893 E.2052
G1 X104.201 Y45.037 E.02002
G1 X108.176 Y49.011 E.21428
G1 X107.886 Y49.37 E.01759
G1 X103.697 Y45.181 E.22584
G1 X103.193 Y45.325 E.01998
G1 X107.636 Y49.768 E.23954
G2 X107.424 Y50.205 I1.836 J1.161 E.01856
G1 X102.799 Y45.58 E.24935
G1 X102.67 Y46.099 E.02039
G1 X107.263 Y50.692 E.24763
G1 X107.168 Y51.245 E.02139
G1 X102.542 Y46.619 E.2494
G1 X102.413 Y47.139 E.02042
G1 X107.158 Y51.883 E.25579
G2 X107.291 Y52.665 I4.862 J-.427 E.03027
G1 X102.284 Y47.658 E.26995
G1 X102.155 Y48.178 E.02042
G1 X120.302 Y66.325 E.97837
M204 P4000
G1 E-.7 F2100
G1 X120.302 Y66.325 Z.4 F18014.394
G1 X142.427 Y59.92 F18000
G1 Z.2 F720
G1 E.7 F2100
M204 P500
G1 F2400
G1 X143.027 Y60.52 E.03235
G1 X143.384 Y61.526 E.04069
G1 X142.364 Y60.506 E.05499
G1 X142.148 Y60.939 E.01845
G1 X143.741 Y62.531 E.08586
G1 X144.098 Y63.536 E.04066
G1 X141.932 Y61.371 E.11675
G1 X141.717 Y61.804 E.01843
G1 X144.454 Y64.542 E.14759
G1 X144.811 Y65.547 E.04066
G1 X141.501 Y62.236 E.17848
G1 X141.285 Y62.669 E.01845
G1 X144.892 Y66.276 E.19447
G1 X144.62 Y66.653 E.01772
G1 X141.069 Y63.101 E.19147
G1 X140.853 Y63.534 E.01845
G1 X144.349 Y67.029 E.18846
G1 X144.077 Y67.406 E.01772
G1 X140.638 Y63.967 E.18541
G1 X140.415 Y64.392 E.0183
G1 X143.805 Y67.783 E.18279
G1 X143.534 Y68.16 E.0177
M73 P4 R26
G1 X140.091 Y64.717 E.18562
G3 X139.603 Y64.877 I-.573 J-.924 E.01977
G1 X143.262 Y68.536 E.19727
G1 X143.002 Y68.896 E.01693
G1 X142.981 Y68.904 E.00086
G1 X138.651 Y64.573 E.23347
G1 X137.316 Y63.887 E.05722
G1 X142.498 Y69.069 E.27938
G1 X142.015 Y69.234 E.01946
G1 X135.982 Y63.201 E.32526
G1 X134.969 Y62.681 E.04341
G1 X134.911 Y62.779 E.00434
G1 X141.532 Y69.4 E.35696
G1 X141.049 Y69.565 E.01946
G1 X134.671 Y63.187 E.34386
G1 X134.43 Y63.595 E.01806
G1 X140.566 Y69.731 E.33081
G1 X140.083 Y69.896 E.01946
G1 X134.189 Y64.002 E.31777
G1 X133.949 Y64.41 E.01805
G1 X139.6 Y70.061 E.30467
G1 X139.117 Y70.227 E.01947
G1 X133.708 Y64.818 E.29162
G1 X133.467 Y65.226 E.01806
G1 X138.634 Y70.392 E.27854
G1 X138.151 Y70.557 E.01946
G1 X133.227 Y65.633 E.26547
G1 X132.986 Y66.041 E.01806
G1 X137.668 Y70.723 E.25242
G1 X137.185 Y70.888 E.01946
G1 X132.746 Y66.449 E.23932
G1 X132.505 Y66.857 E.01806
G1 X136.702 Y71.053 E.22625
G1 X136.219 Y71.219 E.01947
G1 X132.264 Y67.264 E.21323
G3 X131.966 Y67.614 I-.98 J-.533 E.01765
G1 X135.736 Y71.384 E.20325
G1 X135.253 Y71.549 E.01946
